Sweet-Rainbow/icons/pycharm.svg

<?xml version="1.0" encoding="UTF-8" standalone="no"?>
<!-- Generator: Gravit.io -->

<svg
   xmlns:dc="http://purl.org/dc/elements/1.1/"
   xmlns:cc="http://creativecommons.org/ns#"
   xmlns:rdf="http://www.w3.org/1999/02/22-rdf-syntax-ns#"
   xmlns:svg="http://www.w3.org/2000/svg"
   xmlns="http://www.w3.org/2000/svg"
   xmlns:sodipodi="http://sodipodi.sourceforge.net/DTD/sodipodi-0.dtd"
   xmlns:inkscape="http://www.inkscape.org/namespaces/inkscape"
   style="isolation:isolate"
   viewBox="0 0 36 36"
   width="48"
   height="48"
   version="1.1"
   id="svg49"
   sodipodi:docname="pycharm.svg"
   inkscape:version="0.92.4 (5da689c313, 2019-01-14)">
  <metadata
     id="metadata55">
    <rdf:RDF>
      <cc:Work
         rdf:about="">
        <dc:format>image/svg+xml</dc:format>
        <dc:type
           rdf:resource="http://purl.org/dc/dcmitype/StillImage" />
        <dc:title></dc:title>
      </cc:Work>
    </rdf:RDF>
  </metadata>
  <defs
     id="defs53" />
  <sodipodi:namedview
     pagecolor="#ffffff"
     bordercolor="#666666"
     borderopacity="1"
     objecttolerance="10"
     gridtolerance="10"
     guidetolerance="10"
     inkscape:pageopacity="0"
     inkscape:pageshadow="2"
     inkscape:window-width="640"
     inkscape:window-height="480"
     id="namedview51"
     showgrid="false"
     inkscape:zoom="29.365243"
     inkscape:cx="25.325443"
     inkscape:cy="32"
     inkscape:current-layer="svg49"
     units="px" />
  <linearGradient
     id="_lgradient_67"
     x1="0.99411762"
     y1="0.48015597"
     x2="0.00018059855"
     y2="0.45213065"
     gradientTransform="matrix(30.8,0,0,48.61,-0.04,-0.24)"
     gradientUnits="userSpaceOnUse">
    <stop
       offset="0%"
       stop-opacity="1"
       style="stop-color:rgb(17,153,142)"
       id="stop2" />
    <stop
       offset="99.1304347826087%"
       stop-opacity="1"
       style="stop-color:rgb(56,239,125)"
       id="stop4" />
  </linearGradient>
  <linearGradient
     id="_lgradient_68"
     x1="59.80661"
     y1="15.273428"
     x2="-33.656933"
     y2="18.917889"
     gradientTransform="scale(0.82487505,1.2123048)"
     gradientUnits="userSpaceOnUse">
    <stop
       offset="0%"
       stop-opacity="1"
       style="stop-color:rgb(17,153,142)"
       id="stop9" />
    <stop
       offset="99.1304347826087%"
       stop-opacity="1"
       style="stop-color:rgb(56,239,125)"
       id="stop11" />
  </linearGradient>
  <linearGradient
     id="_lgradient_69"
     x1="1.5627142"
     y1="0.54316336"
     x2="-0.052491475"
     y2="0.53895819"
     gradientTransform="matrix(16.3,0,0,11.89,23.23,-0.12)"
     gradientUnits="userSpaceOnUse">
    <stop
       offset="34.94098066785295%"
       stop-opacity="1"
       style="stop-color:rgb(178,229,107)"
       id="stop16" />
    <stop
       offset="53.84922244785295%"
       stop-opacity="1"
       style="stop-color:rgb(194,233,100)"
       id="stop18" />
    <stop
       offset="90.40515655585295%"
       stop-opacity="1"
       style="stop-color:rgb(236,244,81)"
       id="stop20" />
    <stop
       offset="100%"
       stop-opacity="1"
       style="stop-color:rgb(250,247,75)"
       id="stop22" />
  </linearGradient>
  <linearGradient
     id="_lgradient_70"
     x1="1.5627142"
     y1="0.54316336"
     x2="-0.052491475"
     y2="0.53895819"
     gradientTransform="matrix(37.38,0,0,29.74,12,18.42)"
     gradientUnits="userSpaceOnUse">
    <stop
       offset="34.94098066785295%"
       stop-opacity="1"
       style="stop-color:rgb(178,229,107)"
       id="stop27" />
    <stop
       offset="53.84922244785295%"
       stop-opacity="1"
       style="stop-color:rgb(194,233,100)"
       id="stop29" />
    <stop
       offset="90.40515655585295%"
       stop-opacity="1"
       style="stop-color:rgb(236,244,81)"
       id="stop31" />
    <stop
       offset="100%"
       stop-opacity="1"
       style="stop-color:rgb(250,247,75)"
       id="stop33" />
  </linearGradient>
  <linearGradient
     id="_lgradient_71"
     x1="1.5627142"
     y1="0.54316336"
     x2="-0.052491475"
     y2="0.53895819"
     gradientTransform="matrix(29,0,0,29,9.5,9.5)"
     gradientUnits="userSpaceOnUse">
    <stop
       offset="34.94098066785295%"
       stop-opacity="1"
       style="stop-color:rgb(178,229,107)"
       id="stop38" />
    <stop
       offset="53.84922244785295%"
       stop-opacity="1"
       style="stop-color:rgb(194,233,100)"
       id="stop40" />
    <stop
       offset="90.40515655585295%"
       stop-opacity="1"
       style="stop-color:rgb(236,244,81)"
       id="stop42" />
    <stop
       offset="100%"
       stop-opacity="1"
       style="stop-color:rgb(250,247,75)"
       id="stop44" />
  </linearGradient>
  <g
     id="g867"
     transform="matrix(0.727996,0,0,0.727996,0.02911977,0.48077626)">
    <path
       id="path7"
       d="M 16.89,42.34 18.55,41.23 22.624,43 19.11,45.66 15.04,48.37 -0.04,39.09 1.05,7.64 20.19,-0.24 29.06,5.3 30.76,6.36 28.64,9.76 26.94,8.7 19.81,4.24 4.95,10.36 4.04,36.91 14.96,43.63 Z"
       style="fill:url(#_lgradient_67)"
       inkscape:connector-curvature="0" />
    <path
       id="path14"
       stroke-miterlimit="3"
       d="m 39,12 8,7 -3,7"
       style="vector-effect:non-scaling-stroke;fill:none;stroke:url(#_lgradient_68);stroke-width:4;stroke-linecap:square;stroke-linejoin:miter;stroke-miterlimit:3"
       inkscape:connector-curvature="0" />
    <path
       id="path25"
       d="m 27.11,10.66 -1.66,1.11 -2.22,-3.32 1.66,-1.11 11.18,-7.46 2.83,8.49 0.63,1.89 -3.79,1.27 -0.64,-1.9 -1.17,-3.51 z"
       style="fill:url(#_lgradient_69)"
       inkscape:connector-curvature="0" />
    <path
       id="path36"
       d="m 39.63,23.9 -1.89,0.63 -1.27,-3.79 1.9,-0.64 5.05,-1.68 5.96,23.85 L 32.9,48.16 17.15,40.81 12,38 l 5.03,-1.66 1.82,0.85 14.25,6.65 11.52,-4.11 -4.04,-16.15 z"
       style="fill:url(#_lgradient_70)"
       inkscape:connector-curvature="0" />
    <path
       id="path47"
       d="m 35.978,31.218 v 0 c 0,-0.695 0.565,-1.26 1.261,-1.26 v 0 c 0.696,0 1.261,0.565 1.261,1.26 v 0 4.13 c 0,1.74 -1.412,3.152 -3.152,3.152 H 12.652 C 10.912,38.5 9.5,37.088 9.5,35.348 v -11.978 0 c 0,-0.696 0.565,-1.261 1.261,-1.261 v 0 c 0.696,0 1.261,0.565 1.261,1.261 v 0 10.717 c 0,1.044 0.847,1.891 1.891,1.891 h 20.174 c 1.044,0 1.891,-0.847 1.891,-1.891 z M 12.022,16.782 v 0 c 0,0.695 -0.565,1.26 -1.261,1.26 v 0 c -0.696,0 -1.261,-0.565 -1.261,-1.26 v 0 -4.13 C 9.5,10.912 10.912,9.5 12.652,9.5 h 22.696 c 1.74,0 3.152,1.412 3.152,3.152 v 12.495 0 c 0,0.696 -0.565,1.261 -1.261,1.261 v 0 c -0.696,0 -1.261,-0.565 -1.261,-1.261 v 0 -11.234 c 0,-1.044 -0.847,-1.891 -1.891,-1.891 H 13.913 c -1.044,0 -1.891,0.847 -1.891,1.891 z M 14,30.5 h 9 V 33 h -9 z m 2.288,-13.564 v 3.204 h 0.753 v 0 q 1.055,0 1.579,-0.417 v 0 0 q 0.524,-0.417 0.524,-1.214 v 0 0 q 0,-0.805 -0.439,-1.189 v 0 0 q -0.439,-0.384 -1.376,-0.384 v 0 z m 10.787,-0.125 v 0 0 q -1.292,0 -2,0.971 v 0 0 q -0.709,0.97 -0.709,2.705 v 0 0 q 0,3.609 2.709,3.609 v 0 0 q 1.137,0 2.753,-0.569 v 0 1.919 0 Q 28.499,26 26.861,26 v 0 0 q -2.354,0 -3.602,-1.428 v 0 0 q -1.247,-1.428 -1.247,-4.1 v 0 0 q 0,-1.683 0.612,-2.949 v 0 0 q 0.613,-1.266 1.761,-1.941 v 0 0 q 1.147,-0.675 2.69,-0.675 v 0 0 q 1.572,0 3.159,0.76 v 0 l -0.738,1.86 v 0 q -0.605,-0.288 -1.218,-0.502 v 0 0 q -0.613,-0.214 -1.203,-0.214 z m -5.62,1.616 v 0 0 q 0,1.742 -1.089,2.665 v 0 0 q -1.089,0.922 -3.096,0.922 v 0 h -0.982 v 3.838 H 14 v -10.79 h 3.447 v 0 q 1.963,0 2.985,0.845 v 0 0 q 1.023,0.845 1.023,2.52 z"
       style="fill:url(#_lgradient_71);fill-rule:evenodd"
       inkscape:connector-curvature="0" />
  </g>
</svg>

<?xml version="1.0" encoding="UTF-8" standalone="no"?><!-- Generator: Gravit.io --><svg xmlns="http://www.w3.org/2000/svg" xmlns:xlink="http://www.w3.org/1999/xlink" style="isolation:isolate" viewBox="0 0 48 48" width="48pt" height="48pt"><linearGradient id="_lgradient_67" x1="0.9941176470588236" y1="0.4801559760374085" x2="0.00018059855521146417" y2="0.45213064394988733" gradientTransform="matrix(30.8,0,0,48.61,-0.04,-0.24)" gradientUnits="userSpaceOnUse"><stop offset="0%" stop-opacity="1" style="stop-color:rgb(17,153,142)"/><stop offset="99.1304347826087%" stop-opacity="1" style="stop-color:rgb(56,239,125)"/></linearGradient><path d=" M 16.89 42.34 L 18.55 41.23 L 22.624 43 L 19.11 45.66 L 15.04 48.37 L -0.04 39.09 L 1.05 7.64 L 20.19 -0.24 L 29.06 5.3 L 30.76 6.36 L 28.64 9.76 L 26.94 8.7 L 19.81 4.24 L 4.95 10.36 L 4.04 36.91 L 14.96 43.63 L 16.89 42.34 Z " fill="url(#_lgradient_67)"/><linearGradient id="_lgradient_68" x1="0.9941176470588227" y1="0.48015597603740856" x2="-4.831911119711044" y2="0.7073325916888952"><stop offset="0%" stop-opacity="1" style="stop-color:rgb(17,153,142)"/><stop offset="99.1304347826087%" stop-opacity="1" style="stop-color:rgb(56,239,125)"/></linearGradient><path d=" M 39 12 L 47 19 L 44 26" fill="none" vector-effect="non-scaling-stroke" stroke-width="4" stroke="url(#_lgradient_68)" stroke-linejoin="miter" stroke-linecap="square" stroke-miterlimit="3"/><linearGradient id="_lgradient_69" x1="1.5627141899860746" y1="0.543163345093069" x2="-0.052491476226457445" y2="0.5389581965419142" gradientTransform="matrix(16.3,0,0,11.89,23.23,-0.12)" gradientUnits="userSpaceOnUse"><stop offset="34.94098066785295%" stop-opacity="1" style="stop-color:rgb(178,229,107)"/><stop offset="53.84922244785295%" stop-opacity="1" style="stop-color:rgb(194,233,100)"/><stop offset="90.40515655585295%" stop-opacity="1" style="stop-color:rgb(236,244,81)"/><stop offset="100%" stop-opacity="1" style="stop-color:rgb(250,247,75)"/></linearGradient><path d=" M 27.11 10.66 L 25.45 11.77 L 23.23 8.45 L 24.89 7.34 L 36.07 -0.12 L 38.9 8.37 L 39.53 10.26 L 35.74 11.53 L 35.1 9.63 L 33.93 6.12 L 27.11 10.66 Z " fill="url(#_lgradient_69)"/><linearGradient id="_lgradient_70" x1="1.5627141899860746" y1="0.543163345093069" x2="-0.052491476226457445" y2="0.5389581965419142" gradientTransform="matrix(37.38,0,0,29.74,12,18.42)" gradientUnits="userSpaceOnUse"><stop offset="34.94098066785295%" stop-opacity="1" style="stop-color:rgb(178,229,107)"/><stop offset="53.84922244785295%" stop-opacity="1" style="stop-color:rgb(194,233,100)"/><stop offset="90.40515655585295%" stop-opacity="1" style="stop-color:rgb(236,244,81)"/><stop offset="100%" stop-opacity="1" style="stop-color:rgb(250,247,75)"/></linearGradient><path d=" M 39.63 23.9 L 37.74 24.53 L 36.47 20.74 L 38.37 20.1 L 43.42 18.42 L 49.38 42.27 L 32.9 48.16 L 17.15 40.81 L 12 38 L 17.03 36.34 L 18.85 37.19 L 33.1 43.84 L 44.62 39.73 L 40.58 23.58 L 39.63 23.9 Z " fill="url(#_lgradient_70)"/><linearGradient id="_lgradient_71" x1="1.5627141899860746" y1="0.543163345093069" x2="-0.052491476226457445" y2="0.5389581965419142" gradientTransform="matrix(29,0,0,29,9.5,9.5)" gradientUnits="userSpaceOnUse"><stop offset="34.94098066785295%" stop-opacity="1" style="stop-color:rgb(178,229,107)"/><stop offset="53.84922244785295%" stop-opacity="1" style="stop-color:rgb(194,233,100)"/><stop offset="90.40515655585295%" stop-opacity="1" style="stop-color:rgb(236,244,81)"/><stop offset="100%" stop-opacity="1" style="stop-color:rgb(250,247,75)"/></linearGradient><path d=" M 35.978 31.218 L 35.978 31.218 C 35.978 30.523 36.543 29.958 37.239 29.958 L 37.239 29.958 C 37.935 29.958 38.5 30.523 38.5 31.218 L 38.5 31.218 L 38.5 35.348 C 38.5 37.088 37.088 38.5 35.348 38.5 L 12.652 38.5 C 10.912 38.5 9.5 37.088 9.5 35.348 L 9.5 23.37 L 9.5 23.37 C 9.5 22.674 10.065 22.109 10.761 22.109 L 10.761 22.109 C 11.457 22.109 12.022 22.674 12.022 23.37 L 12.022 23.37 L 12.022 34.087 C 12.022 35.131 12.869 35.978 13.913 35.978 L 34.087 35.978 C 35.131 35.978 35.978 35.131 35.978 34.087 L 35.978 31.218 L 35.978 31.218 L 35.978 31.218 Z  M 12.022 16.782 L 12.022 16.782 C 12.022 17.477 11.457 18.042 10.761 18.042 L 10.761 18.042 C 10.065 18.042 9.5 17.477 9.5 16.782 L 9.5 16.782 L 9.5 12.652 C 9.5 10.912 10.912 9.5 12.652 9.5 L 35.348 9.5 C 37.088 9.5 38.5 10.912 38.5 12.652 L 38.5 25.147 L 38.5 25.147 C 38.5 25.843 37.935 26.408 37.239 26.408 L 37.239 26.408 C 36.543 26.408 35.978 25.843 35.978 25.147 L 35.978 25.147 L 35.978 13.913 C 35.978 12.869 35.131 12.022 34.087 12.022 L 13.913 12.022 C 12.869 12.022 12.022 12.869 12.022 13.913 L 12.022 16.782 L 12.022 16.782 L 12.022 16.782 Z  M 14 30.5 L 23 30.5 L 23 33 L 14 33 L 14 30.5 L 14 30.5 Z  M 16.288 16.936 L 16.288 20.14 L 17.041 20.14 L 17.041 20.14 Q 18.096 20.14 18.62 19.723 L 18.62 19.723 L 18.62 19.723 Q 19.144 19.306 19.144 18.509 L 19.144 18.509 L 19.144 18.509 Q 19.144 17.704 18.705 17.32 L 18.705 17.32 L 18.705 17.32 Q 18.266 16.936 17.329 16.936 L 17.329 16.936 L 16.288 16.936 L 16.288 16.936 Z  M 27.075 16.811 L 27.075 16.811 L 27.075 16.811 Q 25.783 16.811 25.075 17.782 L 25.075 17.782 L 25.075 17.782 Q 24.366 18.752 24.366 20.487 L 24.366 20.487 L 24.366 20.487 Q 24.366 24.096 27.075 24.096 L 27.075 24.096 L 27.075 24.096 Q 28.212 24.096 29.828 23.527 L 29.828 23.527 L 29.828 25.446 L 29.828 25.446 Q 28.499 26 26.861 26 L 26.861 26 L 26.861 26 Q 24.507 26 23.259 24.572 L 23.259 24.572 L 23.259 24.572 Q 22.012 23.144 22.012 20.472 L 22.012 20.472 L 22.012 20.472 Q 22.012 18.789 22.624 17.523 L 22.624 17.523 L 22.624 17.523 Q 23.237 16.257 24.385 15.582 L 24.385 15.582 L 24.385 15.582 Q 25.532 14.907 27.075 14.907 L 27.075 14.907 L 27.075 14.907 Q 28.647 14.907 30.234 15.667 L 30.234 15.667 L 29.496 17.527 L 29.496 17.527 Q 28.891 17.239 28.278 17.025 L 28.278 17.025 L 28.278 17.025 Q 27.665 16.811 27.075 16.811 L 27.075 16.811 Z  M 21.455 18.427 L 21.455 18.427 L 21.455 18.427 Q 21.455 20.169 20.366 21.092 L 20.366 21.092 L 20.366 21.092 Q 19.277 22.014 17.27 22.014 L 17.27 22.014 L 16.288 22.014 L 16.288 25.852 L 14 25.852 L 14 15.062 L 17.447 15.062 L 17.447 15.062 Q 19.41 15.062 20.432 15.907 L 20.432 15.907 L 20.432 15.907 Q 21.455 16.752 21.455 18.427 L 21.455 18.427 Z " fill-rule="evenodd" fill="url(#_lgradient_71)"/></svg>
